svg/stamp.svg

<svg xmlns="http://www.w3.org/2000/svg" viewBox="0 0 64 64" enable-background="new 0 0 64 64"><style type="text/css">.st0{fill:#343434;}</style><title>stamp</title><desc>Created with Sketch.</desc><path class="st0" d="M62 45h-15v-2.5c0-3-2.5-5.5-5.5-5.5h-3.5v-13c1.5-6 4-11.7 4-14 0-5.6-4.5-10-10-10s-10 4.4-10 10c0 2.3 2.6 8 4 14v13h-3.5c-3 0-5.5 2.5-5.5 5.5v2.5h-15c-1.1 0-2 .9-2 2v10c0 1.1.9 2 2 2h3v5h54v-5h3c1.1 0 2-.9 2-2v-10c0-1.1-.9-2-2-2zm-30-41c3.3 0 6 2.7 6 6 0 .2-.2 1-.6 2.3-.3.8-1.5 4.5-1.7 5.2-.7 2-1.2 3.8-1.6 5.4h-4.3c-.4-1.6-.9-3.4-1.6-5.5-.2-.7-1.4-4.3-1.7-5.2-.3-1.2-.5-2-.5-2.2 0-3.3 2.7-6 6-6zm-2 23h4v10h-4v-10zm-9 15.5c0-.8.7-1.5 1.5-1.5h19c.8 0 1.5.7 1.5 1.5v1.5h-22v-1.5zm35 18.5h-48v-2h48v2zm4-6h-56v-6h56v6z"/></svg>

<?xml version="1.0" encoding="utf-8"?>
<!-- Generator: Adobe Illustrator 21.0.0, SVG Export Plug-In . SVG Version: 6.00 Build 0)  -->
<svg version="1.1" id="Layer_1" xmlns="http://www.w3.org/2000/svg" xmlns:xlink="http://www.w3.org/1999/xlink" x="0px" y="0px"
	 viewBox="0 0 64 64" style="enable-background:new 0 0 64 64;" xml:space="preserve">
<style type="text/css">
	.st0{fill:#343434;}
</style>
<title>stamp</title>
<desc>Created with Sketch.</desc>
<path class="st0" d="M62,45H47v-2.5c0-3-2.5-5.5-5.5-5.5H38V24c1.5-6,4-11.7,4-14c0-5.6-4.5-10-10-10S22,4.4,22,10c0,2.3,2.6,8,4,14
	v13h-3.5c-3,0-5.5,2.5-5.5,5.5V45H2c-1.1,0-2,0.9-2,2v10c0,1.1,0.9,2,2,2h3v5h54v-5h3c1.1,0,2-0.9,2-2V47C64,45.9,63.1,45,62,45z
	 M32,4c3.3,0,6,2.7,6,6c0,0.2-0.2,1-0.6,2.3c-0.3,0.8-1.5,4.5-1.7,5.2c-0.7,2-1.2,3.8-1.6,5.4c0,0-4.3,0-4.3,0
	c-0.4-1.6-0.9-3.4-1.6-5.5c-0.2-0.7-1.4-4.3-1.7-5.2C26.2,11,26,10.2,26,10C26,6.7,28.7,4,32,4z M30,27h4v10h-4V27z M21,42.5
	c0-0.8,0.7-1.5,1.5-1.5H26h12h3.5c0.8,0,1.5,0.7,1.5,1.5V44H21V42.5z M56,61H8v-2h48V61z M60,55H4v-6h56V55z"/>
</svg>
